SVG/arrow-circle-o-right.svg

<?xml version="1.0" encoding="utf-8"?>
<!-- Generated by IcoMoon.io -->
<!DOCTYPE svg PUBLIC "-//W3C//DTD SVG 1.1//EN" "http://www.w3.org/Graphics/SVG/1.1/DTD/svg11.dtd">
<svg version="1.1" xmlns="http://www.w3.org/2000/svg" xmlns:xlink="http://www.w3.org/1999/xlink" width="12" height="14" viewBox="0 0 12 14">
<path fill="#444444" d="M9 7q0 0.109-0.070 0.18l-2.5 2.5q-0.070 0.070-0.18 0.070-0.102 0-0.176-0.074t-0.074-0.176v-1.5h-2.75q-0.102 0-0.176-0.074t-0.074-0.176v-1.5q0-0.102 0.074-0.176t0.176-0.074h2.75v-1.5q0-0.109 0.070-0.18t0.18-0.070q0.094 0 0.187 0.078l2.492 2.492q0.070 0.070 0.070 0.18zM10.25 7q0-1.156-0.57-2.133t-1.547-1.547-2.133-0.57-2.133 0.57-1.547 1.547-0.57 2.133 0.57 2.133 1.547 1.547 2.133 0.57 2.133-0.57 1.547-1.547 0.57-2.133zM12 7q0 1.633-0.805 3.012t-2.184 2.184-3.012 0.805-3.012-0.805-2.184-2.184-0.805-3.012 0.805-3.012 2.184-2.184 3.012-0.805 3.012 0.805 2.184 2.184 0.805 3.012z"></path>
</svg>

<svg xmlns="http://www.w3.org/2000/svg" viewBox="0 0 12 14"><path d="M9 7q0 .11-.07.18l-2.5 2.5q-.07.07-.18.07-.102 0-.176-.074T6 9.5V8H3.25q-.102 0-.176-.074T3 7.75v-1.5q0-.102.074-.176T3.25 6H6V4.5q0-.11.07-.18t.18-.07q.094 0 .187.078L8.93 6.82Q9 6.89 9 7zm1.25 0q0-1.156-.57-2.133T8.133 3.32 6 2.75t-2.133.57T2.32 4.867 1.75 7t.57 2.133 1.547 1.547T6 11.25t2.133-.57T9.68 9.133 10.25 7zM12 7q0 1.633-.805 3.012T9.01 12.196 6 13t-3.013-.804-2.184-2.184T-.002 7t.805-3.012 2.184-2.184T6 1t3.01.804 2.185 2.184T12 7z" /></svg>
